X: 1
T: Lady Louisa Macdonald's Strathspey
C: Traditional
R: strathspey
Z: 2011 John Chambers <jc:trillian.mit.edu>
M: C
L: 1/16
K: F
A2 \
| "F"F3G F3d "C7"cA3 c3g | "F(Dm)"F3G F3A "Gm"BG3 "C"G3A \
| "F"F3G F3d "Am"cA3 A3c |1 "Dm"a3g f3F "Am"Ac3 c2 :|2 "Dm"d3e f3g "C7"a3g f2 |]
|: fg \
| "F"a3g f3F "C7"Ac3 c2fg | "F(Dm)"a3g f3d "C"eg3 g2fg \
| "F"a3g f3c "Bb"def2 "Am"c3A |1 "Dm"d3e f3d "C7"cA3 A2 :|2 "Gm"Bcd2 "C7"G3B "F"AF3 F2 |]
